X: 9
T: Master Crowley's
R: reel
M: 4/4
L: 1/8
K: Amaj
cd|eaga fgeg | f (3ddd d fdad | eaga fge2 | cAFD E2E2 |
eaga fgeg | f (3ddd d fdad | FABc (3ddd d2 | cAFD E2E2 |
|:e (3eee e ceBe | e (3eee e geae | e (3eee e ceBe | gbaf gee2 :|
K:Dmaj
|:A,DFD A,DFD | EDEF GAB2 | A,DFD A,DFD |1 EDCE D2D2 :|2 EDCE D2 |


Tune 281	Setting 281

